packages/ffe-icons/icons/open/300/md/airline_seat_individual_suite.svg

<svg xmlns="http://www.w3.org/2000/svg" height="24" viewBox="0 -960 960 960" width="24"><path d="M839.231-300.001H120.769q-25.307 0-43.037-17.731-17.73-17.73-17.73-43.037v-269.23q0-12.75 8.628-21.375 8.629-8.625 21.384-8.625 12.756 0 21.371 8.625Q120-642.749 120-629.999V-360h330.001v-239.231q0-25.307 17.73-43.037 17.73-17.731 43.038-17.731H760q57.749 0 98.874 41.125 41.125 41.125 41.125 98.874v159.231q0 25.307-17.731 43.037-17.73 17.731-43.037 17.731ZM509.999-360H840v-160q0-33-23.5-56.5T760-600H509.999v240Zm0-240v240-240ZM280.045-417.694q42.647 0 72.454-29.852 29.807-29.853 29.807-72.499 0-42.647-29.852-72.454-29.853-29.807-72.499-29.807-42.647 0-72.454 29.852-29.807 29.853-29.807 72.499 0 42.647 29.852 72.454 29.853 29.807 72.499 29.807ZM280-477.692q-17.769 0-30.039-12.269-12.269-12.27-12.269-30.039 0-17.769 12.269-30.039 12.27-12.269 30.039-12.269 17.769 0 30.039 12.269 12.269 12.27 12.269 30.039 0 17.769-12.269 30.039-12.27 12.269-30.039 12.269ZM280-520Z"/></svg>

<svg xmlns="http://www.w3.org/2000/svg" height="24" viewBox="0 -960 960 960" width="24"><path d="M839.23-300H120.77q-25.31 0-43.04-17.73T60-360.77V-630q0-12.75 8.63-21.37Q77.26-660 90.01-660q12.76 0 21.37 8.63Q120-642.75 120-630v270h330v-239.23q0-25.31 17.73-43.04T510.77-660H760q57.75 0 98.87 41.13Q900-577.75 900-520v159.23q0 25.31-17.73 43.04T839.23-300ZM510-360h330v-160q0-33-23.5-56.5T760-600H510v240Zm0-240v240-240ZM280.05-417.69q42.64 0 72.45-29.86 29.81-29.85 29.81-72.5 0-42.64-29.86-72.45-29.85-29.81-72.5-29.81-42.64 0-72.45 29.86-29.81 29.85-29.81 72.5 0 42.64 29.86 72.45 29.85 29.81 72.5 29.81Zm-.05-60q-17.77 0-30.04-12.27T237.69-520q0-17.77 12.27-30.04T280-562.31q17.77 0 30.04 12.27T322.31-520q0 17.77-12.27 30.04T280-477.69Zm0-42.31Z"/></svg>
